img/icon/menu-icon/blog.svg

<svg width="24" height="24" viewBox="0 0 24 24" fill="none" xmlns="http://www.w3.org/2000/svg">
<path d="M8.16778 9.78222L12.0267 12.01M12.0267 12.01V7.55556M12.0267 12.01L8.17667 14.2333M12.0267 12.01V16.4444M12.0267 12.01L15.8467 9.80445M12.0267 12.01L15.8389 14.2111M18.6667 22H5.33333C3.49222 22 2 20.5078 2 18.6667V5.33333C2 3.49222 3.49222 2 5.33333 2H18.6667C20.5078 2 22 3.49222 22 5.33333V18.6667C22 20.5078 20.5078 22 18.6667 22Z" stroke="#848E9F" stroke-width="1.5" stroke-linecap="round" stroke-linejoin="round"/>
</svg>

<svg width="24" height="24" fill="none" xmlns="http://www.w3.org/2000/svg"><path d="M8.168 9.782l3.859 2.228m0 0V7.556m0 4.454l-3.85 2.223m3.85-2.223v4.434m0-4.434l3.82-2.206m-3.82 2.206l3.812 2.201M18.667 22H5.333A3.333 3.333 0 0 1 2 18.667V5.333A3.333 3.333 0 0 1 5.333 2h13.334A3.333 3.333 0 0 1 22 5.333v13.334A3.333 3.333 0 0 1 18.667 22z" stroke="#848E9F" stroke-width="1.5" stroke-linecap="round" stroke-linejoin="round"/></svg>
